public/svg/javascript.svg

<svg width="24" height="24" viewBox="0 0 24 24" fill="none" xmlns="http://www.w3.org/2000/svg">
<path d="M0 0H24V24H0V0Z" fill="#F7DF1E"/>
<path d="M6.31055 20.0561L8.14715 18.9449C8.50115 19.5731 8.82455 20.1047 9.59735 20.1047C10.3383 20.1047 10.8051 19.8149 10.8051 18.6869V11.0177H13.0611V18.7181C13.0611 21.0551 11.6913 22.1177 9.69455 22.1177C7.88915 22.1177 6.84215 21.1841 6.31055 20.0561ZM14.2863 19.8137L16.1223 18.7511C16.6065 19.5407 17.2341 20.1209 18.3453 20.1209C19.2801 20.1209 19.8753 19.6529 19.8753 19.0091C19.8753 18.2357 19.2645 17.9621 18.2331 17.5109L17.6691 17.2691C16.0425 16.5761 14.9625 15.7061 14.9625 13.8689C14.9625 12.1787 16.2525 10.8887 18.2655 10.8887C19.6995 10.8887 20.7303 11.3891 21.4713 12.6941L19.7151 13.8221C19.3281 13.1291 18.9093 12.8549 18.2655 12.8549C17.6055 12.8549 17.1855 13.2737 17.1855 13.8221C17.1855 14.4977 17.6055 14.7719 18.5715 15.1919L19.1355 15.4319C21.0525 16.2539 22.1313 17.0921 22.1313 18.9767C22.1313 21.0071 20.5365 22.1177 18.3945 22.1177C16.2993 22.1177 14.9463 21.1199 14.2863 19.8149" fill="black"/>
</svg>

<svg xmlns="http://www.w3.org/2000/svg" width="24" height="24" fill="none" xmlns:v="https://vecta.io/nano"><path d="M0 0H24V24H0V0Z" fill="#f7df1e"/><path d="M6.311 20.056l1.837-1.111c.354.628.677 1.16 1.45 1.16.741 0 1.208-.29 1.208-1.418v-7.669h2.256v7.7c0 2.337-1.37 3.4-3.367 3.4-1.805 0-2.852-.934-3.384-2.062zm7.976-.242l1.836-1.063c.484.79 1.112 1.37 2.223 1.37.935 0 1.53-.468 1.53-1.112 0-.773-.611-1.047-1.642-1.498l-.564-.242c-1.627-.693-2.707-1.563-2.707-3.4 0-1.69 1.29-2.98 3.303-2.98 1.434 0 2.465.5 3.206 1.805l-1.756 1.128c-.387-.693-.806-.967-1.45-.967-.66 0-1.08.419-1.08.967 0 .676.42.95 1.386 1.37l.564.24c1.917.822 2.996 1.66 2.996 3.545 0 2.03-1.595 3.141-3.737 3.141-2.095 0-3.448-.998-4.108-2.303" fill="#000"/></svg>
